images/people/people-24.svg

<?xml version="1.0" standalone="no"?><!DOCTYPE svg PUBLIC "-//W3C//DTD SVG 1.1//EN" "http://www.w3.org/Graphics/SVG/1.1/DTD/svg11.dtd"><svg width="120px" height="192px" version="1.1" xmlns="http://www.w3.org/2000/svg" xmlns:xlink="http://www.w3.org/1999/xlink" xml:space="preserve" style="fill-rule:evenodd;clip-rule:evenodd;stroke-linejoin:round;stroke-miterlimit:1.41421;"><g><g id="people-24" transform="matrix(1,0,0,1,-694.118,-48)"><g transform="matrix(1,0,0,1,0,-12)"><path d="M768,104.562l-4.187,0.687l-1.125,-9.5l4.625,-6l6.062,1.438l6.438,-3.312l3.25,6.999l6.749,2.751l-3.062,8.562l-4,-1" style="fill:#2a2b2a;fill-rule:nonzero;"/></g><g transform="matrix(1,0,0,1,0,-12)"><path d="M731.686,197.436l3.961,1.396l19.914,-35.765l-3.79,-2.099l-20.085,36.468Z" style="fill:#c1beba;fill-rule:nonzero;"/></g><g transform="matrix(1,0,0,1,0,-12)"><path d="M767.588,231.52l-0.943,6.871l6.697,-0.172l0.516,-7.384l-6.27,0.685Z" style="fill:#2a2b2a;fill-rule:nonzero;"/></g><g transform="matrix(1,0,0,1,0,-12)"><path d="M772.418,242.019l1.353,9.981l5.28,0l0.773,-2.19l-1.377,-9.057l-6.029,1.266Z" style="fill:#2a2b2a;fill-rule:nonzero;"/></g><g transform="matrix(1,0,0,1,0,-12)"><path d="M781.756,120.905l-2.834,-1.889l-2.061,-5.839l-4.757,1.357l-1.51,3.709l-3.262,1.632l7.103,11.462l7.321,-10.432Z" style="fill:#aa8b7e;fill-rule:nonzero;"/></g><g transform="matrix(1,0,0,1,0,-12)"><path d="M776.963,117.339l-4.286,0l-4.616,-5.935l0.824,-12.694l1.762,-1.462l8.722,0.087l2.867,2.034l-0.166,12.035l-5.107,5.935Z" style="fill:#ceab97;fill-rule:nonzero;"/></g><g transform="matrix(1,0,0,1,0,-12)"><path d="M768.576,103.956l-2.822,0.047l-0.223,4.916l2.879,-0.15l0.166,-4.813Z" style="fill:#ceab97;fill-rule:nonzero;"/></g><g transform="matrix(1,0,0,1,0,-12)"><path d="M781.864,104.625l2.848,0.775l-0.224,4.122l-2.518,0.098l-0.106,-4.995Z" style="fill:#ceab97;fill-rule:nonzero;"/></g><g transform="matrix(1,0,0,1,0,-12)"><path d="M762.927,161.531l4.661,69.989l5.41,0l1.201,-59.858l-2.794,28.96l1.078,41.46l5.923,-1.288l3.094,-39.927l4.033,-38.822l-22.606,-0.514Z" style="fill:#5c5e5f;fill-rule:nonzero;"/></g><g transform="matrix(1,0,0,1,0,-12)"><path d="M773.654,171.562l-2.719,31.107l1.282,28.86l-5.317,-10.071l-2.576,-40.69l9.33,-9.206Z" style="fill:#171817;fill-opacity:0.5;fill-rule:nonzero;"/></g><g transform="matrix(1,0,0,1,0,-12)"><path d="M792.841,157.49l2.349,5.768l-0.452,7.992l-2.653,-1.018l-0.541,-6.748l0.22,2.034l-2.4,0.107l0.873,-5.549l2.604,-2.586Z" style="fill:#ceab97;fill-rule:nonzero;"/></g><g transform="matrix(1,0,0,1,0,-12)"><path d="M751.443,155.976l-1.776,4.479l0.157,7.378l2.899,-0.381l0.588,-6.746l-0.233,2.033l2.495,0.344l-0.837,-5.593l-3.293,-1.514Z" style="fill:#ceab97;fill-rule:nonzero;"/></g><g transform="matrix(1,0,0,1,0,-12)"><path d="M767.201,119.746l-6.225,2.705l-9.836,34.315l3.59,0.735l9.508,-30.414l-1.373,34.442l22.668,0.516l-1.889,-32.209l6.526,30.319l3.306,-1.459l-5.881,-34.356l-5.839,-3.565l-8.371,-0.498l-6.184,-0.531Z" style="fill:#ef9c74;fill-rule:nonzero;"/></g><g transform="matrix(1,0,0,1,0,-12)"><path d="M767.578,231.516l4.672,-0.016l-1.328,-30.078l0.765,-5.672l-6.5,-0.5l2.391,36.266Z" style="fill:#aa8b7e;fill-rule:nonzero;"/></g><g transform="matrix(1,0,0,1,0,-12)"><path d="M771.531,195.734l-0.625,5.734l1.531,40.625l5.99,-1.302l3.575,-44.964l-10.471,-0.093Z" style="fill:#ceab97;fill-rule:nonzero;"/></g><g transform="matrix(1,0,0,1,0,-12)"><path d="M753.48,214.648l-0.521,32.508l-5.39,-0.009l-0.437,-23.667l6.348,-8.832Z" style="fill:#2a2b2a;fill-rule:nonzero;"/></g><g transform="matrix(1,0,0,1,0,-12)"><path d="M747.25,230.022l5.907,6.875l-0.183,10.319l-5.505,0.003l-0.219,-17.197Z" style="fill:#cead80;fill-rule:nonzero;"/></g><g transform="matrix(1,0,0,1,0,-12)"><path d="M732.411,225.136l0.392,22.08l6.048,0l-0.091,-21.16l-6.349,-0.92Z" style="fill:#2a2b2a;fill-rule:nonzero;"/></g><g transform="matrix(1,0,0,1,0,-12)"><path d="M718.703,192.2l4.601,59.801l5.765,0l0.737,-23.922l7.115,0l1.102,23.922l6.073,0l1.656,-22.817l7.727,-14.536l-5.152,-16.559l-11.592,-6.257l-18.032,0.368Z" style="fill:#cead80;fill-rule:nonzero;"/></g><g transform="matrix(1,0,0,1,0,-12)"><path d="M736.827,191.831l0.185,20.333l-7.643,7.648l-9.25,-9.156l-1.508,-18.457l18.216,-0.368Z" style="fill:#f6f1e1;fill-rule:nonzero;"/></g><g transform="matrix(1,0,0,1,0,-12)"><path d="M718.91,184.448l-5.864,-9.031l2.168,-4.166l8.48,4.733l-4.784,8.464Z" style="fill:#2a2b2a;fill-rule:nonzero;"/></g><g transform="matrix(1,0,0,1,0,-12)"><path d="M736.345,184.609l6.368,-9.693l-2.583,-3.499l-8.34,4.59l4.555,8.602Z" style="fill:#2a2b2a;fill-rule:nonzero;"/></g><g transform="matrix(1,0,0,1,0,-12)"><path d="M731.951,176.008l6.992,13.615l-8.855,8.752l-5.375,-0.062l-8.625,-8.625l7.491,-13.68l8.372,0Z" style="fill:#cead80;fill-rule:nonzero;"/></g><g transform="matrix(1,0,0,1,0,-12)"><path d="M732.213,188.25l-2.125,10.125l-5.375,-0.062l-2.25,-9.938l9.75,-0.125Z" style="fill:#2a2b2a;fill-rule:nonzero;"/></g></g></g></svg>

<?xml version="1.0" encoding="UTF-8" standalone="no"?>
<!DOCTYPE svg PUBLIC "-//W3C//DTD SVG 1.1//EN" "http://www.w3.org/Graphics/SVG/1.1/DTD/svg11.dtd">
<svg width="100%" height="100%" viewBox="0 0 140 220" version="1.1" xmlns="http://www.w3.org/2000/svg" xmlns:xlink="http://www.w3.org/1999/xlink" xml:space="preserve" xmlns:serif="http://www.serif.com/" style="fill-rule:evenodd;clip-rule:evenodd;stroke-linejoin:round;stroke-miterlimit:2;">
    <g id="people-24" transform="matrix(1.27,0,0,1.27,-887.73,-84.8)">
        <g transform="matrix(1,0,0,1,0,-12)">
            <path d="M768,104.563L763.813,105.25L762.688,95.75L767.313,89.75L773.375,91.188L779.813,87.876L783.063,94.875L789.812,97.626L786.75,106.188L782.75,105.188" style="fill:rgb(42,43,42);fill-rule:nonzero;"/>
        </g>
        <g transform="matrix(1,0,0,1,0,-12)">
            <path d="M731.686,197.437L735.647,198.832L755.561,163.068L751.771,160.969L731.686,197.437Z" style="fill:rgb(193,190,186);fill-rule:nonzero;"/>
        </g>
        <g transform="matrix(1,0,0,1,0,-12)">
            <path d="M767.588,231.521L766.645,238.392L773.342,238.22L773.858,230.836L767.588,231.521Z" style="fill:rgb(42,43,42);fill-rule:nonzero;"/>
        </g>
        <g transform="matrix(1,0,0,1,0,-12)">
            <path d="M772.418,242.019L773.771,252L779.051,252L779.824,249.81L778.447,240.753L772.418,242.019Z" style="fill:rgb(42,43,42);fill-rule:nonzero;"/>
        </g>
        <g transform="matrix(1,0,0,1,0,-12)">
            <path d="M781.756,120.905L778.922,119.016L776.861,113.177L772.104,114.534L770.594,118.243L767.332,119.875L774.435,131.337L781.756,120.905Z" style="fill:rgb(170,139,126);fill-rule:nonzero;"/>
        </g>
        <g transform="matrix(1,0,0,1,0,-12)">
            <path d="M776.963,117.339L772.677,117.339L768.061,111.404L768.885,98.71L770.647,97.248L779.369,97.335L782.236,99.369L782.07,111.404L776.963,117.339Z" style="fill:rgb(206,171,151);fill-rule:nonzero;"/>
        </g>
        <g transform="matrix(1,0,0,1,0,-12)">
            <path d="M768.576,103.956L765.754,104.003L765.531,108.919L768.41,108.769L768.576,103.956Z" style="fill:rgb(206,171,151);fill-rule:nonzero;"/>
        </g>
        <g transform="matrix(1,0,0,1,0,-12)">
            <path d="M781.864,104.625L784.712,105.4L784.488,109.522L781.97,109.62L781.864,104.625Z" style="fill:rgb(206,171,151);fill-rule:nonzero;"/>
        </g>
        <g transform="matrix(1,0,0,1,0,-12)">
            <path d="M762.927,161.531L767.588,231.52L772.998,231.52L774.199,171.662L771.405,200.622L772.483,242.082L778.406,240.794L781.5,200.867L785.533,162.045L762.927,161.531Z" style="fill:rgb(92,94,95);fill-rule:nonzero;"/>
        </g>
        <g transform="matrix(1,0,0,1,0,-12)">
            <path d="M773.654,171.563L770.935,202.67L772.217,231.529L766.9,221.459L764.324,180.768L773.654,171.563Z" style="fill:rgb(23,24,23);fill-opacity:0.5;fill-rule:nonzero;"/>
        </g>
        <g transform="matrix(1,0,0,1,0,-12)">
            <path d="M792.841,157.49L795.19,163.258L794.738,171.25L792.085,170.232L791.544,163.484L791.764,165.518L789.364,165.625L790.237,160.076L792.841,157.49Z" style="fill:rgb(206,171,151);fill-rule:nonzero;"/>
        </g>
        <g transform="matrix(1,0,0,1,0,-12)">
            <path d="M751.443,155.976L749.667,160.455L749.824,167.833L752.723,167.452L753.311,160.706L753.078,162.739L755.573,163.083L754.736,157.49L751.443,155.976Z" style="fill:rgb(206,171,151);fill-rule:nonzero;"/>
        </g>
        <g transform="matrix(1,0,0,1,0,-12)">
            <path d="M767.201,119.746L760.976,122.451L751.14,156.766L754.73,157.501L764.238,127.087L762.865,161.529L785.533,162.045L783.644,129.836L790.17,160.155L793.476,158.696L787.595,124.34L781.756,120.775L773.385,120.277L767.201,119.746Z" style="fill:rgb(239,156,116);fill-rule:nonzero;"/>
        </g>
        <g transform="matrix(1,0,0,1,0,-12)">
            <path d="M767.578,231.516L772.25,231.5L770.922,201.422L771.687,195.75L765.187,195.25L767.578,231.516Z" style="fill:rgb(170,139,126);fill-rule:nonzero;"/>
        </g>
        <g transform="matrix(1,0,0,1,0,-12)">
            <path d="M771.531,195.734L770.906,201.468L772.437,242.093L778.427,240.791L782.002,195.827L771.531,195.734Z" style="fill:rgb(206,171,151);fill-rule:nonzero;"/>
        </g>
        <g transform="matrix(1,0,0,1,0,-12)">
            <path d="M753.48,214.648L752.959,247.156L747.569,247.147L747.132,223.48L753.48,214.648Z" style="fill:rgb(42,43,42);fill-rule:nonzero;"/>
        </g>
        <g transform="matrix(1,0,0,1,0,-12)">
            <path d="M747.25,230.022L753.157,236.897L752.974,247.216L747.469,247.219L747.25,230.022Z" style="fill:rgb(206,173,128);fill-rule:nonzero;"/>
        </g>
        <g transform="matrix(1,0,0,1,0,-12)">
            <path d="M732.411,225.136L732.803,247.216L738.851,247.216L738.76,226.056L732.411,225.136Z" style="fill:rgb(42,43,42);fill-rule:nonzero;"/>
        </g>
        <g transform="matrix(1,0,0,1,0,-12)">
            <path d="M718.703,192.2L723.304,252L729.069,252L729.806,228.079L736.921,228.079L738.023,252L744.096,252L745.752,229.183L753.479,214.648L748.327,198.089L736.735,191.832L718.703,192.2Z" style="fill:rgb(206,173,128);fill-rule:nonzero;"/>
        </g>
        <g transform="matrix(1,0,0,1,0,-12)">
            <path d="M736.827,191.831L737.012,212.164L729.369,219.812L720.119,210.656L718.611,192.199L736.827,191.831Z" style="fill:rgb(246,241,225);fill-rule:nonzero;"/>
        </g>
        <g transform="matrix(1,0,0,1,0,-12)">
            <path d="M718.91,184.448L713.046,175.417L715.214,171.251L723.694,175.984L718.91,184.448Z" style="fill:rgb(42,43,42);fill-rule:nonzero;"/>
        </g>
        <g transform="matrix(1,0,0,1,0,-12)">
            <path d="M736.345,184.609L742.713,174.916L740.13,171.417L731.79,176.007L736.345,184.609Z" style="fill:rgb(42,43,42);fill-rule:nonzero;"/>
        </g>
        <g transform="matrix(1,0,0,1,0,-12)">
            <path d="M731.951,176.008L738.943,189.623L730.088,198.375L724.713,198.313L716.088,189.688L723.579,176.008L731.951,176.008Z" style="fill:rgb(206,173,128);fill-rule:nonzero;"/>
        </g>
        <g transform="matrix(1,0,0,1,0,-12)">
            <path d="M732.213,188.25L730.088,198.375L724.713,198.313L722.463,188.375L732.213,188.25Z" style="fill:rgb(42,43,42);fill-rule:nonzero;"/>
        </g>
    </g>
</svg>
